svgs/sharp-regular/sign-posts-wrench.svg

<svg xmlns="http://www.w3.org/2000/svg" viewBox="0 0 640 512"><!--! Font Awesome Pro 6.6.0 by @fontawesome - https://fontawesome.com License - https://fontawesome.com/license (Commercial License) Copyright 2024 Fonticons, Inc. --><path d="M64 32L64 0l48 0 0 32 352 0 0-32 48 0 0 32 16 0 48 0 0 48 0 112-48 0 0-112L48 80l0 288 311.3 0c5.5 17.5 13.9 33.7 24.7 48l-272 0 0 96-48 0 0-96-16 0L0 416l0-48L0 80 0 32l48 0 16 0zM427.3 224l36.7 0 0 96 48 48 48-48 0-96 36.7 0c26.6 23.5 43.3 57.8 43.3 96c0 40.4-18.7 76.5-48 99.9l0 92.1-160 0 0-92.1c-29.3-23.5-48-59.5-48-99.9c0-38.2 16.8-72.5 43.3-96z"/></svg>

<svg xmlns="http://www.w3.org/2000/svg" viewBox="0 0 640 512"><!--! Font Awesome Pro 6.5.2 by @fontawesome - https://fontawesome.com License - https://fontawesome.com/license (Commercial License) Copyright 2024 Fonticons, Inc. --><path d="M64 32L64 0h48l0 32H464l0-32h48l0 32h16 48V80 192H528V80H48V368H359.3c5.5 17.5 13.9 33.7 24.7 48H112l0 96H64l0-96H48 0V368 80 32H48 64zM427.3 224H464v96l48 48 48-48V224l36.7 0c26.6 23.5 43.3 57.8 43.3 96c0 40.4-18.7 76.5-48 99.9V512H432V419.9c-29.3-23.5-48-59.5-48-99.9c0-38.2 16.8-72.5 43.3-96z"/></svg>
